component-icons/svg/wizard.svg

<?xml version="1.0" encoding="utf-8"?>
<!-- Generator: Adobe Illustrator 24.2.3, SVG Export Plug-In . SVG Version: 6.00 Build 0)  -->
<svg version="1.1" id="Layer_1" xmlns="http://www.w3.org/2000/svg" xmlns:xlink="http://www.w3.org/1999/xlink" x="0px" y="0px"
	 width="24px" height="24px" viewBox="0 0 24 24" enable-background="new 0 0 24 24" xml:space="preserve">
<path d="M2,4L2,4C0.9,4,0,3.1,0,2l0,0c0-1.1,0.9-2,2-2l0,0c1.1,0,2,0.9,2,2l0,0C4,3.1,3.1,4,2,4z M12,0c-1.1,0-2,0.9-2,2s0.9,2,2,2
	s2-0.9,2-2l0,0C14,0.9,13.1,0,12,0z M12,3c-0.6,0-1-0.4-1-1s0.4-1,1-1s1,0.4,1,1l0,0C13,2.6,12.6,3,12,3z M24,2L24,2
	c0-1.1-0.9-2-2-2l0,0c-1.1,0-2,0.9-2,2l0,0c0,1.1,0.9,2,2,2l0,0C23.1,4,24,3.1,24,2z M5,1h4L7,3H5V1z M15,1h4l-2,2h-2V1z M20,22H0v2
	h20V22z M0,8h24V6H0V8z M2,6H0v18h2V6z M24,6h-2v14h2V6z M24,20l-1.4-1.4l-4,4L20,24L24,20z M4,16h16v-2H4V16z M4,12h16v-2H4V12z
	 M14,18H9v2h3L14,18z M20,18h-5v2h3L20,18z"/>
</svg>

<svg id="Layer_1" data-name="Layer 1" xmlns="http://www.w3.org/2000/svg" viewBox="0 0 24 24"><defs><style>.cls-1{fill:gray;}</style></defs><title>wizard</title><path class="cls-1" d="M2,4H2A2,2,0,0,1,0,2H0A2,2,0,0,1,2,0H2A2,2,0,0,1,4,2H4A2,2,0,0,1,2,4ZM12,0a2,2,0,1,0,2,2h0a2,2,0,0,0-2-2Zm0,3a1,1,0,1,1,1-1h0a1,1,0,0,1-1,1ZM24,2h0a2,2,0,0,0-2-2h0a2,2,0,0,0-2,2h0a2,2,0,0,0,2,2h0a2,2,0,0,0,2-2ZM5,1H9L7,3H5ZM15,1h4L17,3H15Zm5,21H0v2H20ZM0,8H24V6H0ZM2,6H0V24H2ZM24,6H22V20h2Zm0,14-1.41-1.41-4,4L20,24ZM4,16H20V14H4Zm0-4H20V10H4Zm10,6H9v2h3Zm6,0H15v2h3Z"/></svg>
